Origami/48x48/apps/sqldeveloper.svg

<svg width="48" height="48" version="1.1" viewBox="0 0 48 48" xmlns="http://www.w3.org/2000/svg">
 <path d="m23.846154 25a20 10 0 0 0 -20 10 20 10 0 0 0 20 10 20 10 0 0 0 20 -10 20 10 0 0 0 -20 -10z" style="opacity:.2"/>
 <path d="m23.846154 24a20 10 0 0 0 -20 10 20 10 0 0 0 20 10 20 10 0 0 0 20 -10 20 10 0 0 0 -20 -10z" style="fill:#696969"/>
 <path d="m23.846154 15a20 10 0 0 0 -20 10 20 10 0 0 0 20 10 20 10 0 0 0 20 -10 20 10 0 0 0 -20 -10z" style="opacity:.2"/>
 <path d="m23.846154 14a20 10 0 0 0 -20 10 20 10 0 0 0 20 10 20 10 0 0 0 20 -10 20 10 0 0 0 -20 -10z" style="fill:#919191"/>
 <path d="m23.846154 5a20 10 0 0 0 -20 10 20 10 0 0 0 20 10 20 10 0 0 0 20 -10 20 10 0 0 0 -20 -10z" style="opacity:.2"/>
 <path d="m23.846154 4a20 10 0 0 0 -20 10 20 10 0 0 0 20 10 20 10 0 0 0 20 -10 20 10 0 0 0 -20 -10z" style="fill:#cccccc"/>
 <path d="m23.845703 4a20 10 0 0 0 -20 10 20 10 0 0 0 0.0410157 0.417969 20 10 0 0 1 19.958984 -9.417969 20 10 0 0 1 19.958985 9.591797 20 10 0 0 0 0.041015 -0.591797 20 10 0 0 0 -20 -10z" style="fill:#ffffff;opacity:.2"/>
 <circle cx="36" cy="36" r="11" style="opacity:.2"/>
 <circle cx="36" cy="35" r="11" style="fill:#0ab884"/>
 <path transform="matrix(.95278809 0 0 .91682076 1.6906222 2.8973573)" d="m42.306761 35.015179-4.722981 2.726814-4.722981 2.726814v-5.453628-5.453629l4.722981 2.726814z" style="fill:#ffffff"/>
</svg>

<svg xmlns="http://www.w3.org/2000/svg" width="48" height="48" version="1.1" viewBox="0 0 48 48">
 <path style="opacity:0.2" d="M 23.846154,25 A 20,10 0 0 0 3.8461538,35 20,10 0 0 0 23.846154,45 a 20,10 0 0 0 20,-10 20,10 0 0 0 -20,-10 z"/>
 <path style="fill:#696969" d="M 23.846154,24 A 20,10 0 0 0 3.8461538,34 20,10 0 0 0 23.846154,44 a 20,10 0 0 0 20,-10 20,10 0 0 0 -20,-10 z"/>
 <path style="opacity:0.2" d="M 23.846154,15 A 20,10 0 0 0 3.8461538,25 20,10 0 0 0 23.846154,35 a 20,10 0 0 0 20,-10 20,10 0 0 0 -20,-10 z"/>
 <path style="fill:#919191" d="M 23.846154,14 A 20,10 0 0 0 3.8461538,24 20,10 0 0 0 23.846154,34 a 20,10 0 0 0 20,-10 20,10 0 0 0 -20,-10 z"/>
 <path style="opacity:0.2" d="M 23.846154,5 A 20,10 0 0 0 3.8461538,15 20,10 0 0 0 23.846154,25 a 20,10 0 0 0 20,-10 20,10 0 0 0 -20,-10 z"/>
 <path style="fill:#cccccc" d="M 23.846154,4 A 20,10 0 0 0 3.8461538,14 20,10 0 0 0 23.846154,24 a 20,10 0 0 0 20,-10 20,10 0 0 0 -20,-10 z"/>
 <path style="fill:#ffffff;opacity:0.2" d="M 23.845703 4 A 20 10 0 0 0 3.8457031 14 A 20 10 0 0 0 3.8867188 14.417969 A 20 10 0 0 1 23.845703 5 A 20 10 0 0 1 43.804688 14.591797 A 20 10 0 0 0 43.845703 14 A 20 10 0 0 0 23.845703 4 z"/>
 <circle style="opacity:0.2" cx="36" cy="36" r="11"/>
 <circle style="fill:#0ab884" cx="36" cy="35" r="11"/>
 <path style="fill:#ffffff" d="m 42.306761,35.015179 -4.722981,2.726814 -4.722981,2.726814 0,-5.453628 0,-5.453629 4.722981,2.726814 z" transform="matrix(0.95278809,0,0,0.91682076,1.6906222,2.8973573)"/>
</svg>
